X:1
T:Title
%%score { ( 1 3 ) | ( 2 4 ) }
L:1/8
M:6/8
K:Db
V:1 treble nm="Grand Piano"
V:3 treble 
V:2 bass 
V:4 bass 
V:1
 z3 z2[Q:1/4=100] [GB] | A-[DA-][EA-] [FA]2 [CGB] | A-[DA-][EA-] [FA]2 [Fd] | %3
 c-[Cc-][Dc-] [Ec]2 [Ge] | d-[Dd-][Ed-] [Fd][Gc][CGB] | A-[DA-][EA-] [FA]2 [GB] | %6
 A-[DA-][EA-] [FA]2 [Fd] | c-[Cc-][Dc-] [Ec]2 [Ge] |[M:5/8] d-[Ad-][Gd-] [Fd]2 |[M:1/8] [A,FA] | %10
[M:3/4] [Gc][Gc] [Fd][Ge] [Fd][Ec] |[M:5/8] [Fd][Gc][GB] [FA]2 |[M:1/8] [FA] | %13
[M:3/4] [Gc][Gc] [Fd][Ge] [Fd][Ec] |[M:5/8] [Fd][Gc][GB] [FA]2 |[M:1/8] [GB] | %16
[M:3/4] [FA][DF] [FA][Af] [Ge][Fd] | [Gd][Ac] [GB] [FA]2 [FA] | AA A=G dc | c<c B A2 [DGB] | %20
 A-[DA-] [EA-] [FA]2 [DGB] | A-[DA-] [EA-] [FA]2 [Fd] | c-[Cc-] [Dc-] [Ec]2 [Ge] | %23
[M:5/8] d-[Ad-][Gd-] [Fd]2 |] %24
V:2
 z3 z2 D, | z F,G, A,2 D, | z F,G, A,2 [D,A,] | A,E,F, G,2 [A,,A,] | A,F,G, A,[D,B,]D, | %5
 z F,G, A,2 D, | z F,G, A,2 [D,A,] | A,E,F, G,2 [A,,A,] |[M:5/8] A,CB, A,2 |[M:1/8] D, | %10
[M:3/4] [A,,A,][A,,A,] [A,,A,] [A,,A,]2 [A,,A,] |[M:5/8] [D,A,][D,B,][D,C] [D,D]2 |[M:1/8] [D,A,] | %13
[M:3/4] [A,,A,][A,,A,] [A,,A,] [A,,A,]2 [A,,A,] |[M:5/8] [D,A,][D,B,][D,C] [D,D]2 |[M:1/8] [D,D] | %16
[M:3/4] [D,D][D,A,] [D,D] [D,D]2 [D,A,] | [G,B,][G,C] [G,D] [D,D]2 [D,D] | %18
 [E,CE][E,CE] [E,CE][B,E] [=G,F][E,A,E] | [E,=G,E]<[E,G,E] [E,DE] [A,CE]2 D, | z F, G, A,2 D, | %21
 z F, G, A,2 [D,A,] | A,E, F, G,2 [A,,A,] |[M:5/8] A,CB, A,2 |] %24
V:3
 x6 | .F3 z3 | .[DF]3 z3 | .E3 z3 | .F3 z3 | .[DF]3 z3 | .F3 z3 | .E3 z3 |[M:5/8] F z z z2 | %9
[M:1/8] x |[M:3/4] x6 |[M:5/8] x5 |[M:1/8] x |[M:3/4] x6 |[M:5/8] x5 |[M:1/8] x |[M:3/4] x6 | x6 | %18
 x6 | x6 | .[DF]2 z2 z2 | .[DF]2 z2 z2 | .E2 z2 z2 |[M:5/8] F z z z2 |] %24
V:4
 x6 | D,6 | D,6 | A,,6 | .D,6 | D,6 | D,6 | A,,6 |[M:5/8] D,-D,- D,3 |[M:1/8] x |[M:3/4] x6 | %11
[M:5/8] x5 |[M:1/8] x |[M:3/4] x6 |[M:5/8] x5 |[M:1/8] x |[M:3/4] x6 | x6 | z2 z .E,3 | x6 | D,6 | %21
 D,6 | A,,6 |[M:5/8] D,-D,- D,3 |] %24

